!!! OTL: Berkowitz446
!!! Chapter: 1
!!! Section: IV
!!! Page: 111
!!! Mode: 
!!! Encoder: DJB
**kern
*staff1
*I"Piano
=1-
*clefG2
*k[f#c#g#d#]
*E:
*M3/4
8g#/L
8f##/J
8g#/L
8cc#/J
8b/L
8g#/J
=2
4.c#/
8B/
4B/
=3
4.c#/
8B/
8e/L
8g#/J
=4
4a/
8f#/L
8e#/J
4f#/
=5
8cc#\L
8b#\J
8cc#\L
8ee\J
8dd#\L
8cc#\J
=6
4.a/
8f#/
8f#/L
8e/J
=7
8d#/L
8e/J
8f#/L
8cc#/J
8b/L
8f##/J
=8
2.g#/
=9
!!linebreak:original
4.a/
8f#/
8e#/L
8f#/J
=10
4.g#/
8e/
8d#/L
8e/J
=11
4.dd#\
8b\
8a#/L
8b/J
=12
2.cc#\
=13
8ccn\L
8a\J
8fn/L
8e/J
8f/L
8a/J
=14
8b/L
8g#/J
8B/L
8g#/J
4B/
=15
8a/L
8g#/J
8a/L
8cc#/J
8c#/L
8d#/J
=16
2.e/
==
*-
